packages/core/src/svgs/gtc.svg

<svg width="24" height="24" viewBox="0 0 24 24" fill="none" xmlns="http://www.w3.org/2000/svg">
<g clip-path="url(#clip0_31_11160)">
<path d="M0 0H24V24H0V0Z" fill="#F0F3FA"/>
<path fill-rule="evenodd" clip-rule="evenodd" d="M15.8615 11.7546C15.862 11.261 15.7522 10.7735 15.5401 10.3278C15.328 9.8821 15.0191 9.48941 14.6357 9.17844L15.447 8.18115C15.9785 8.61271 16.4068 9.15747 16.7009 9.77569C16.995 10.3939 17.1473 11.07 17.1467 11.7546C17.1473 12.4392 16.9951 13.1154 16.701 13.7337C16.4069 14.352 15.9785 14.8968 15.447 15.3284L14.6353 14.3312C15.0187 14.0201 15.3277 13.6274 15.5398 13.1816C15.7518 12.7358 15.862 12.2482 15.8615 11.7546Z" fill="#02E2AC"/>
<path fill-rule="evenodd" clip-rule="evenodd" d="M9.42858 4.28551C9.42858 4.17184 9.47373 4.06283 9.5541 3.98246C9.63447 3.90209 9.74348 3.85693 9.85715 3.85693C9.97081 3.85693 10.0798 3.90209 10.1602 3.98246C10.2406 4.06283 10.2857 4.17184 10.2857 4.28551V5.93551C10.7025 5.78846 11.1333 5.68505 11.5714 5.62693V4.28551C11.5714 4.17184 11.6166 4.06283 11.697 3.98246C11.7773 3.90209 11.8863 3.85693 12 3.85693C12.1137 3.85693 12.2227 3.90209 12.3031 3.98246C12.3834 4.06283 12.4286 4.17184 12.4286 4.28551V5.57036C13.9039 5.56827 15.3347 6.07573 16.479 7.00693C16.749 7.22636 17.0006 7.46679 17.2316 7.7265L17.2543 7.75222L13.8514 10.7651C14.0357 11.0612 14.1429 11.4109 14.1429 11.7855C14.1429 12.2385 13.9864 12.6555 13.725 12.9846L17.1429 15.6306V16.3708L17.142 16.3716V18.4284H12.5357L12.4277 18.4292C8.877 18.4292 5.99829 15.5505 5.99829 11.9998C5.99829 9.53208 7.38858 7.38922 9.42858 6.31136V4.28551ZM12.8001 13.6236C12.5004 13.719 12.1818 13.7396 11.8722 13.6836C11.5626 13.6276 11.2715 13.4967 11.0241 13.3024C10.7767 13.108 10.5806 12.8561 10.4529 12.5686C10.3252 12.2811 10.2698 11.9667 10.2915 11.6529C10.3132 11.339 10.4113 11.0352 10.5774 10.768C10.7434 10.5008 10.9723 10.2783 11.2441 10.1198C11.5158 9.96132 11.8222 9.87175 12.1366 9.85888C12.4509 9.846 12.7636 9.91022 13.0474 10.0459L15.6639 7.72908C14.7337 7.02192 13.597 6.6399 12.4286 6.64179C11.6666 6.64179 10.9423 6.80036 10.2861 7.08708V8.99979C10.2861 9.11346 10.241 9.22246 10.1606 9.30284C10.0802 9.38321 9.97124 9.42836 9.85758 9.42836C9.74391 9.42836 9.6349 9.38321 9.55453 9.30284C9.47416 9.22246 9.429 9.11346 9.429 8.99979V7.55936C8.70217 8.04969 8.1069 8.71105 7.69552 9.48531C7.28414 10.2596 7.06924 11.123 7.06972 11.9998C7.06972 14.9591 9.46886 17.3578 12.4277 17.3578C12.4577 17.3578 12.4881 17.3578 12.5181 17.3569H16.0706V16.1556L12.8001 13.6236ZM13.0714 11.7855C13.0714 12.0128 12.9811 12.2309 12.8204 12.3916C12.6596 12.5523 12.4416 12.6426 12.2143 12.6426C11.987 12.6426 11.7689 12.5523 11.6082 12.3916C11.4475 12.2309 11.3571 12.0128 11.3571 11.7855C11.3571 11.5582 11.4475 11.3402 11.6082 11.1794C11.7689 11.0187 11.987 10.9284 12.2143 10.9284C12.4416 10.9284 12.6596 11.0187 12.8204 11.1794C12.9811 11.3402 13.0714 11.5582 13.0714 11.7855Z" fill="#0E0333"/>
</g>
<defs>
<clipPath id="clip0_31_11160">
<rect width="24" height="24" fill="white"/>
</clipPath>
</defs>
</svg>

<svg xmlns="http://www.w3.org/2000/svg" width="24" height="24" fill="none" viewBox="0 0 24 24"><g clip-path="url(#a)"><path fill="#F0F3FA" d="M0 0h24v24H0z"/><path fill="#02E2AC" fill-rule="evenodd" d="M15.862 11.755a3.31 3.31 0 0 0-1.226-2.577l.811-.997a4.6 4.6 0 0 1 1.7 3.574 4.6 4.6 0 0 1-1.7 3.573l-.812-.997a3.31 3.31 0 0 0 1.226-2.576" clip-rule="evenodd"/><path fill="#0E0333" fill-rule="evenodd" d="M9.429 4.286a.429.429 0 1 1 .857 0v1.65a6.4 6.4 0 0 1 1.285-.31v-1.34a.429.429 0 0 1 .858 0V5.57a6.4 6.4 0 0 1 4.803 2.156l.022.026-3.403 3.013a1.925 1.925 0 0 1-.126 2.22l3.418 2.646v.74h-.001v2.057h-4.606l-.108.001a6.43 6.43 0 0 1-3-12.118zm3.371 9.338a1.928 1.928 0 1 1 .247-3.578l2.617-2.317a5.33 5.33 0 0 0-3.235-1.087c-.762 0-1.487.158-2.143.445V9a.428.428 0 1 1-.857 0V7.56A5.35 5.35 0 0 0 7.069 12c0 2.96 2.4 5.358 5.359 5.358l.09-.001h3.553v-1.201zm.271-1.838a.857.857 0 1 1-1.714 0 .857.857 0 0 1 1.714 0" clip-rule="evenodd"/></g><defs><clipPath id="a"><path fill="#fff" d="M0 0h24v24H0z"/></clipPath></defs></svg>
